!!!OTL: 1326. Altes Soldatenlied. ICH FAHREN
!!!ARE: Europa, Mitteleuropa, Deutschland
!!!SCT: E1326
!!!TXL: @@DE
!!!YEM: Copyright 1995, estate of Helmut Schaffrath.
**kern	**text
*ICvox	*
*M4/4	*
*met(c)	*
*k[b-]	*
*F:	*
!LO:TX:a:t=Marschtakt.	!
!LO:TX:a:t=Deutſche Volksmelodie ſeit 1813-1815.	!
{4c	Ein
=1	=1
4f	Schiff-
4f	-lein
4f	ſah
4g	ich
=2	=2
2a	fah-
8f	-ren,
8r}	.
{8a	Ka-
8b-/	-pi-
=3	=3
4cc	-tän
4cc	und
8ccL	Leu-
8b-J	.
4b-	-te-
=4	=4
2a	-nant,
4r}	.
{8aL	dar-
8b-J	.
=5	=5
4cc	-rin-
4cc	-nen
4cc	war'n
8ddL	ge-
8ccJ	.
=6	=6
8ccL	-la-
8b-J	.
4b-	-den
4r}	.
{8ccL	drei
8b-J	.
=7	=7
8a	bra-
8a	-ve
8a	Kom-
8a	-pag-
4cc	-nien
8b-L	Sol-
8aJ	.
=8	=8
8aL	-da-
8gJ	.
4g	-ten.
4r}	.
!LO:TX:a:t=Refr.	!
{8cc	Ca-
8b-	-pi-
=9	=9
4a	-tän,
4f	Leutnant,
4f	.
(8ccL	Fähnrich,
8b-J)	.
=10	=10
4a	.
4f	Sergeant,
4f}	.
{8cc	nimm
8b-	das
=11	=11
8a	Mä-
8g	-del,
8a	nimm
8b-/	das
8a	Mä-
8g	-del,
8a	nimm
8b-	das
=12	=12
8a	Mä-
8g	-del
8a	bei
8b-/	der
4cc}	Hand!
{4dd	Sol-
=13	=13
2cc	-da-
4b-	-ten,
8b-	Ka-
8b-	-me-
=14	=14
2a	-ra-
4g}	-den,
{4g	Sol-
=15	=15
(4a	-da-
4g)	.
4a	-ten,
8b-	Ka-
8b-	-me-
=16	=16
2cc	-ra-
4f}	-den!
==	==
!!!AGN: Staende -, Soldaten -, Kriegs - Lied
!!!ONB: ESAC (Essen Associative Code) Database: ERK3
!!!AMT: simple quadruple
!!!AIN: vox
!!!EED: Helmut Schaffrath
!!!EEV: 1.0
!!!GTL: Staendelieder (Berufslieder). 1. Soldaten- und Kriegslieder. Soldatenlieder seit dem 30jaehr. Kriege.
!!!URL-scan: https://rosdok.uni-rostock.de/mcrviewer/recordIdentifier/rosdok_ppn745177999/iview2/phys_0213.iview2?x=-128.77276441889308&y=737.4441649062792&scale=0.5870222003877485&rotation=0&layout=singlePageLayout
!!!ENC: Anna Maria Matuszewska
!!!EEV: 2024/12/27
*-	*-
